Origami/64x64/apps/stellarium.svg

<svg width="64" height="64" version="1" xmlns="http://www.w3.org/2000/svg">
 <path d="M 31,7 C 28.57,7 26.228,7.3546562 24,7.9726562 34.978,11.017456 43,21.0254 43,33 43,44.974 34.978,54.983297 24,58.029297 26.228,58.647297 28.57,59 31,59 45.404,59 57,47.404 57,33 57,18.596 45.404,7 31,7 Z m -10,10 -2,3 -4,0 3,3 -1,4 4,-2 4,2 -1,-4 3,-3 -4,0 -2,-3 z m 7,8 -2.78125,5 L 19,31.111328 23.5,35.210938 22,41 28,38.267578 34,41 32.5,35.210938 37,31.111328 30.78125,30 28,25 Z M 18,37 14.601562,44 7,45 12.5,49.763672 11,57 18,53.583984 25,57 23.5,49.763672 29,45 21.400391,44 18,37 Z" style="opacity:.2"/>
 <path d="m31 6c-2.43 0-4.772 0.3546-7 0.9726 10.978 3.0448 19 13.0534 19 25.028 0 11.974-8.022 21.982-19 25.028 2.228 0.618 4.57 0.972 7 0.972 14.404 0 26-11.596 26-26s-11.596-26-26-26z" style="fill:#ffc947"/>
 <path d="m18 36 3.4 7 7.6 1-5.5 4.764l1.5 7.236-7-3.416-7 3.416 1.5-7.236-5.5-4.764 7.6008-1z" style="fill:#478aff"/>
 <path d="M 27.999768,24.000466 30.780859,29 36.999673,30.111921 32.499721,34.211589 34,40.000403 27.999719,37.267254 22,40.000403 23.499717,34.211589 18.999765,30.111921 25.218579,29 Z" style="fill:#6fa4ff"/>
 <path d="M 21.00011,16.000268 23,19 27.000145,19 24.000127,22 25,26.000123 21.000077,24 17,26.000123 18.000027,22 15.000009,19 19,19 Z" style="fill:#90b9ff"/>
 <path d="m31 6c-2.43 0-4.772 0.3546562-7 0.9726562 0.603374 0.1673487 1.194623 0.3636776 1.779297 0.5722657 1.685575-0.3490054 3.429027-0.5449219 5.220703-0.5449219 14.236273 0 25.722545 11.329538 25.988281 25.5 0.003131-0.166951 0.011719-0.332273 0.011719-0.5 0-14.404-11.596-26-26-26zm-10 10l-2 3h-4l1 1h3l2-3 2 3h3l1-1h-4l-2-3zm-3.199219 6.800781l-0.800781 3.199219 0.285156-0.142578 0.714844-2.857422-0.199219-0.199219zm6.398438 0l-0.199219 0.199219 0.714844 2.857422 0.285156 0.142578-0.800781-3.199219zm3.800781 1.199219l-2.78125 5-6.21875 1.111328 0.917969 0.835938 5.300781-0.947266 2.78125-5 2.78125 5 5.300781 0.947266 0.917969-0.835938-6.21875-1.111328-2.78125-5zm14.978516 8.5c-0.215071 11.402669-7.700555 20.92598-18.035157 24.224609l0.056641 0.275391-0.361328-0.175781c-0.214147 0.065444-0.422187 0.145011-0.638672 0.205078 0.584658 0.162172 1.177455 0.303679 1.777344 0.427734 10.054261-3.58706 17.222656-13.140308 17.222656-24.457031 0-0.168519-0.018321-0.332274-0.021484-0.5zm-19.6875 2.519531l-1.291016 4.980469 0.292969-0.132812 1.207031-4.65625-0.208984-0.191407zm9.417968 0l-0.208984 0.191407 1.207031 4.65625 0.292969 0.132812-1.291016-4.980469zm-14.708984 0.980469l-3.398438 7-7.601562 1 1.0019531 0.867188 6.5996089-0.867188 3.398438-7 3.400391 7 6.597656 0.867188 1.001953-0.867188-7.599609-1-3.400391-7zm-5.675781 13.611328l-1.324219 6.388672 0.230469-0.113281 1.269531-6.123047-0.175781-0.152344zm11.351562 0l-0.175781 0.152344 1.269531 6.123047 0.230469 0.113281-1.324219-6.388672z" style="fill:#ffffff;opacity:.2"/>
</svg>

<svg xmlns="http://www.w3.org/2000/svg" width="64" height="64" version="1">
 <path style="opacity:0.2" d="M 31,7 C 28.57,7 26.228,7.3546562 24,7.9726562 34.978,11.017456 43,21.0254 43,33 43,44.974 34.978,54.983297 24,58.029297 26.228,58.647297 28.57,59 31,59 45.404,59 57,47.404 57,33 57,18.596 45.404,7 31,7 Z m -10,10 -2,3 -4,0 3,3 -1,4 4,-2 4,2 -1,-4 3,-3 -4,0 -2,-3 z m 7,8 -2.78125,5 L 19,31.111328 23.5,35.210938 22,41 28,38.267578 34,41 32.5,35.210938 37,31.111328 30.78125,30 28,25 Z M 18,37 14.601562,44 7,45 12.5,49.763672 11,57 18,53.583984 25,57 23.5,49.763672 29,45 21.400391,44 18,37 Z"/>
 <path style="fill:#ffc947" d="m 31,6 c -2.43,0 -4.772,0.3546 -7,0.9726 10.978,3.0448 19,13.0534 19,25.028 0,11.974 -8.022,21.982 -19,25.028 2.228,0.618 4.57,0.972 7,0.972 14.404,0 26,-11.596 26,-26 0,-14.404 -11.596,-26 -26,-26 z"/>
 <path style="fill:#478aff" d="m 18,36 3.4,7 7.6,1 -5.5,4.764 L 25,56 18,52.584 11,56 12.5,48.764 7,44 14.6008,43 Z"/>
 <path style="fill:#6fa4ff" d="M 27.999768,24.000466 30.780859,29 36.999673,30.111921 32.499721,34.211589 34,40.000403 27.999719,37.267254 22,40.000403 23.499717,34.211589 18.999765,30.111921 25.218579,29 Z"/>
 <path style="fill:#90b9ff" d="M 21.00011,16.000268 23,19 27.000145,19 24.000127,22 25,26.000123 21.000077,24 17,26.000123 18.000027,22 15.000009,19 19,19 Z"/>
 <path style="fill:#ffffff;opacity:0.2" d="M 31 6 C 28.57 6 26.228 6.3546562 24 6.9726562 C 24.603374 7.1400049 25.194623 7.3363338 25.779297 7.5449219 C 27.464872 7.1959165 29.208324 7 31 7 C 45.236273 7 56.722545 18.329538 56.988281 32.5 C 56.991412 32.333049 57 32.167727 57 32 C 57 17.596 45.404 6 31 6 z M 21 16 L 19 19 L 15 19 L 16 20 L 19 20 L 21 17 L 23 20 L 26 20 L 27 19 L 23 19 L 21 16 z M 17.800781 22.800781 L 17 26 L 17.285156 25.857422 L 18 23 L 17.800781 22.800781 z M 24.199219 22.800781 L 24 23 L 24.714844 25.857422 L 25 26 L 24.199219 22.800781 z M 28 24 L 25.21875 29 L 19 30.111328 L 19.917969 30.947266 L 25.21875 30 L 28 25 L 30.78125 30 L 36.082031 30.947266 L 37 30.111328 L 30.78125 29 L 28 24 z M 42.978516 32.5 C 42.763445 43.902669 35.277961 53.42598 24.943359 56.724609 L 25 57 L 24.638672 56.824219 C 24.424525 56.889663 24.216485 56.96923 24 57.029297 C 24.584658 57.191469 25.177455 57.332976 25.777344 57.457031 C 35.831605 53.869971 43 44.316723 43 33 C 43 32.831481 42.981679 32.667726 42.978516 32.5 z M 23.291016 35.019531 L 22 40 L 22.292969 39.867188 L 23.5 35.210938 L 23.291016 35.019531 z M 32.708984 35.019531 L 32.5 35.210938 L 33.707031 39.867188 L 34 40 L 32.708984 35.019531 z M 18 36 L 14.601562 43 L 7 44 L 8.0019531 44.867188 L 14.601562 44 L 18 37 L 21.400391 44 L 27.998047 44.867188 L 29 44 L 21.400391 43 L 18 36 z M 12.324219 49.611328 L 11 56 L 11.230469 55.886719 L 12.5 49.763672 L 12.324219 49.611328 z M 23.675781 49.611328 L 23.5 49.763672 L 24.769531 55.886719 L 25 56 L 23.675781 49.611328 z"/>
</svg>
